X:1
T: Peter Laing
C:
R:Strathspey
Q: 128
K:F
M:4/4
L:1/16
|:B2|A3F ABcA Bd3 c3e|fedc =Bcdc _BAGF EG3|A3F ABcA B2d2 c2_e2|d2f2 e2g2 af3 f2B2|
A3F ABcA Bd3 c3e|fedc =Bcdc _BAGF EG3|A3F ABcA B2d2 c2_e2|d2f2 e2g2 af3 f2e2|
f2F2 A2c2 f2a2 c'3a|b3g bagf eg3 g3a|f2F2 A2c2 f2a2 c'2f'2|d'c'ba gc'3 af3 A3c|
f2F2 A2c2 f2a2 c'3a|b3g bagf eg3 g3b|agfe fedc dcBA BAGF|EFGA Bcde fF3 F2:|
